X: 0652
M: 2/4
L: 1/16
K: G
([d6B6] [B2G2]) | [c2A2][e6c6] | [d4B4] [c4A4] | [B2G2][B2G2] z2[d2B2] |\
[d6B6] [B2G2] | [g6B6] [fd][ec] | [d2B2][c2A2] [B2G2][A2F2] | G6 |]

